icons/op-cart-16.svg

<svg width="16" height="16" viewBox="0 0 16 16" fill="none" xmlns="http://www.w3.org/2000/svg">
<path fill-rule="evenodd" clip-rule="evenodd" d="M4.17348 13.6887C4.17348 12.9674 4.76574 12.3775 5.50286 12.3775C6.23998 12.3775 6.83225 12.9674 6.83225 13.6887C6.83225 14.41 6.23998 15 5.50286 15C4.76574 15 4.17348 14.41 4.17348 13.6887Z" fill="#1F2328"/>
<path fill-rule="evenodd" clip-rule="evenodd" d="M11.2257 13.6887C11.2257 12.9674 11.8179 12.3775 12.5551 12.3775C13.2922 12.3775 13.8844 12.9674 13.8844 13.6887C13.8844 14.41 13.2922 15 12.5551 15C11.8179 15 11.2257 14.41 11.2257 13.6887Z" fill="#1F2328"/>
<path fill-rule="evenodd" clip-rule="evenodd" d="M1 1.67742C1 1.30329 1.30815 0.999996 1.68828 0.999996H2.9705C3.29531 0.999996 3.57591 1.2235 3.64364 1.53616L4.21403 4.16921H13.3934C14.4201 4.16921 15.1831 5.10437 14.9615 6.09106L14.1506 9.7011C14.0545 10.1327 13.8121 10.5197 13.463 10.7977C13.1137 11.0757 12.6785 11.2279 12.2292 11.2286L5.96495 11.2286C5.50885 11.2367 5.06426 11.0884 4.70685 10.8092C4.3473 10.5284 4.09859 10.1329 4.00275 9.69122L2.99035 5.01771C2.98527 4.99851 2.98102 4.97896 2.97765 4.95913L2.4135 2.35484H1.68828C1.30815 2.35484 1 2.05154 1 1.67742ZM4.50752 5.52405L5.34895 9.40826C5.37826 9.54311 5.45409 9.66323 5.56254 9.74793C5.67098 9.83263 5.80541 9.87698 5.94269 9.87396L5.95807 9.87379L12.227 9.87379C12.3612 9.87348 12.4921 9.82799 12.5974 9.74423C12.7028 9.66033 12.7766 9.54292 12.806 9.41106L13.6174 5.7986C13.6491 5.65764 13.54 5.52405 13.3934 5.52405H4.50752Z" fill="#1F2328"/>
</svg>

<svg xmlns="http://www.w3.org/2000/svg" width="16" height="16" viewBox="0 0 16 16"><path d="M4.173 13.689c0-.722.593-1.312 1.33-1.312.737 0 1.329.59 1.329 1.312A1.32 1.32 0 0 1 5.503 15c-.737 0-1.33-.59-1.33-1.311Zm7.053 0a1.32 1.32 0 0 1 1.329-1.312c.737 0 1.329.59 1.329 1.312A1.32 1.32 0 0 1 12.555 15a1.32 1.32 0 0 1-1.329-1.311ZM1 1.677C1 1.303 1.308 1 1.688 1H2.97c.325 0 .606.224.674.536l.57 2.633h9.179c1.027 0 1.79.935 1.569 1.922l-.811 3.61a1.948 1.948 0 0 1-.688 1.097c-.349.278-.784.43-1.234.431H5.965a1.988 1.988 0 0 1-1.258-.42 1.94 1.94 0 0 1-.704-1.118L2.99 5.018a.56.56 0 0 1-.012-.059l-.564-2.604h-.726A.683.683 0 0 1 1 1.677Zm3.508 3.847.841 3.884a.592.592 0 0 0 .594.466h6.284a.6.6 0 0 0 .579-.463l.811-3.612a.227.227 0 0 0-.224-.275Z"/></svg>
